**kern	**kern	**kern
*staff3	*staff2	*staff1
*tb32	*tb32	*tb32
*clefF4	*clefF4	*clefG2
*k[f#c#g#]	*k[f#c#g#]	*k[f#c#g#]
*M2/4	*M2/4	*M2/4
*A:	*A:	*A:
(8AAL	2r	(8cL
8EJ	.	8eJ
8AAL	.	4d#
8F#J	.	.
=235	=235	=235
8GGL	2r	8f#L
8GJ	.	8eJ
8EL	.	8g)
8GGJ)	.	8r
=236	=236	=236
(8AAL	2r	(8cL
8EJ	.	8eJ
8AAL	.	4d#
8F#J	.	.
=237	=237	=237
8GGL	2r	8f#L
8GJ	.	8eJ
8EL	.	8b)
8GGJ)	.	8r
=238	=238	=238
(8AAL	2r	(8cL
8EJ	.	8eJ
8AAL	.	4d#
8F#J	.	.
=239	=239	=239
8GGL	2r	8f#L
8GJ	.	8eJ
8EL	.	8g)
8GGJ)	.	8r
=240	=240	=240
(8AAL	2r	(8cL
8GJ	.	8eJ
8AAL	.	4d#
8F#J	.	.
=241	=241	=241
8AA#L	2r	8eL
8GJ	.	8gJ
8BBL	.	4d#
8F#J 8A	.	.
=242	=242	=242
8BBL	2r	8eL
8EJ 8G	.	8bJ
8BBL	.	4d#
8F#J 8A	.	.
=243	=243	=243
2BB)	4r	(4e'
.	4E 4G	4b')
=244	=244	=244
2BB	4r	2d#
.	4F# 4A	.
=245	=245	=245
2r;	2r;	2r;
=246	=246	=246
(2E	2r	(2e
=247	=247	=247
*-	*-	*-
